actions/22x22-dark/select-rectangular.svg

<svg xmlns="http://www.w3.org/2000/svg" viewBox="0 0 22 22">
 <defs id="defs3051">
   <style type="text/css" id="current-color-scheme">
     .ColorScheme-Text {
       color:#f2f2f2;
     }
     </style>
 </defs>
   <path
      style="fill:currentColor;fill-opacity:1;stroke:none"
      d="m2 3v2h1v5 2 5h-1v2h2v-1h6 2 1 5v1h2v-2h-1v-5-2-1-4h1v-2h-2v1h-5-1-2-1-5v-1zm2 2h14v12h-6-2-6zm1 1v10h3v-1h-2v-8h2 8 1v-1zm10 2-.996094.9941406-.003906-.0039062-5 4.9980466.0078125.007813-.0039063 1.003906h-.0039062v.990234.009766h2l .005859-.005859.003907-.003907c.004-.00002.005765.001949.009765.001954l-.005859-.00586.986328-.986328 4-3.996094-.705078-.708984-4.990234 4.986328-.5937505-.591797 4.9921875-4.9882811.591797.5937501.705078.703125 1-1.0000001z"
      class="ColorScheme-Text" />
</svg>

<svg xmlns="http://www.w3.org/2000/svg" viewBox="0 0 22 22">
  <defs id="defs3051">
    <style type="text/css" id="current-color-scheme">
      .ColorScheme-Text {
        color:#f2f2f2;
      }
      </style>
  </defs>
 <path 
     style="fill:currentColor;fill-opacity:1;stroke:none" 
     d="M 2 3 L 2 5 L 3 5 L 3 10 L 3 12 L 3 17 L 2 17 L 2 19 L 4 19 L 4 18 L 10 18 L 12 18 L 13 18 L 18 18 L 18 19 L 20 19 L 20 17 L 19 17 L 19 12 L 19 10 L 19 9 L 19 5 L 20 5 L 20 3 L 18 3 L 18 4 L 13 4 L 12 4 L 10 4 L 9 4 L 4 4 L 4 3 L 2 3 z M 4 5 L 18 5 L 18 17 L 12 17 L 10 17 L 4 17 L 4 5 z M 5 6 L 5 16 L 8 16 L 8 15 L 6 15 L 6 7 L 8 7 L 16 7 L 17 7 L 17 6 L 5 6 z M 15 8 L 14.003906 8.9941406 L 14 8.9902344 L 9 13.988281 L 9.0078125 13.996094 L 9.0039062 15 L 9 15 L 9 15.990234 L 9 16 L 11 16 L 11.005859 15.994141 L 11.009766 15.990234 C 11.013766 15.990214 11.015531 15.992183 11.019531 15.992188 L 11.013672 15.986328 L 12 15 L 16 11.003906 L 15.294922 10.294922 L 10.304688 15.28125 L 9.7109375 14.689453 L 14.703125 9.7011719 L 15.294922 10.294922 L 16 10.998047 L 17 9.9980469 L 15 8 z "
	 class="ColorScheme-Text"
     />
</svg>
